<?xml version="1.0" encoding="UTF-8"?>
<map version="1.10" tiledversion="1.12.1" orientation="orthogonal" renderorder="right-down" width="1" height="1" tilewidth="2048" tileheight="2048" infinite="0" nextlayerid="2" nextobjectid="1">
 <tileset firstgid="1" name="16" tilewidth="2048" tileheight="2048" tilecount="1" columns="1">
  <image source="16.jpg" width="2048" height="2048"/>
 </tileset>
 <tileset firstgid="2" source="16.tsx"/>
 <layer id="1" name="Capa de patrones 1" width="1" height="1">
  <data encoding="csv">
2
</data>
 </layer>
</map>
