<?xml version="1.0" encoding="UTF-8"?>
<map version="1.10" tiledversion="1.12.1" orientation="orthogonal" renderorder="right-down" width="30" height="30" tilewidth="60" tileheight="60" infinite="0" nextlayerid="6" nextobjectid="14">
 <tileset firstgid="1" source="desierto.tsx"/>
 <tileset firstgid="82" source="desierto2.tsx"/>
 <tileset firstgid="466" source="veneno.tsx"/>
 <tileset firstgid="467" source="lava.tsx"/>
 <layer id="1" name="fondo blanco" width="30" height="30">
  <data encoding="csv">
87,88,89,87,88,89,87,87,111,111,111,111,112,113,111,111,87,88,89,87,88,89,87,88,89,89,87,87,88,89,
111,112,113,111,87,87,87,87,87,87,87,87,88,89,113,111,87,87,88,89,112,113,111,112,113,113,111,111,112,113,
111,112,113,87,111,111,111,111,111,111,111,87,87,88,89,89,111,87,88,89,87,87,87,87,87,87,87,88,89,89,
87,88,89,111,111,112,113,113,89,89,89,111,87,87,88,89,89,87,88,89,111,111,111,111,111,87,88,89,89,113,
111,112,113,111,112,113,113,89,113,113,113,113,87,88,89,89,87,88,89,113,89,89,89,89,89,89,89,89,113,89,
87,88,89,88,111,112,113,113,89,113,111,112,111,112,113,113,89,89,113,113,113,113,113,113,113,113,113,113,112,113,
111,112,113,112,113,111,112,113,113,89,89,89,89,89,89,89,113,113,113,87,88,89,89,89,88,89,89,87,88,89,
88,89,88,87,88,89,111,112,113,113,113,113,113,113,113,113,113,89,88,89,88,89,113,89,112,113,113,111,112,113,
87,88,89,111,112,113,88,89,87,87,88,89,87,88,89,111,112,113,112,262,263,264,265,266,111,112,113,87,88,89,
111,112,87,88,89,111,112,113,111,111,112,113,111,112,113,146,147,148,262,263,264,265,266,290,113,111,112,111,112,113,
87,88,111,112,113,89,87,88,89,89,88,89,87,262,263,264,265,266,286,287,288,289,290,266,87,88,89,87,88,89,
111,112,113,111,87,88,89,87,88,89,112,113,262,286,287,288,289,290,288,286,287,288,289,290,111,112,113,111,112,113,
87,88,87,88,89,112,113,111,112,113,87,88,286,287,288,289,290,287,288,289,290,266,87,88,111,112,113,87,88,89,
111,112,111,112,113,88,89,87,88,89,111,112,111,112,113,242,243,286,287,288,289,290,111,112,113,87,88,89,88,89,
112,113,111,112,87,88,89,111,112,113,87,88,89,87,88,89,87,88,89,87,88,89,111,112,113,111,112,113,112,113,
88,89,87,111,111,112,113,87,88,89,111,112,113,111,112,113,111,112,113,111,112,113,262,263,264,262,263,264,265,266,
112,113,111,112,113,88,89,111,112,113,87,88,89,87,88,89,87,88,89,111,112,113,286,287,288,286,287,288,289,290,
111,112,113,111,111,112,113,111,112,113,111,112,113,111,112,113,111,112,113,87,88,89,262,263,262,263,264,265,266,216,
87,88,89,89,88,89,88,89,88,89,87,88,89,87,88,89,87,88,89,111,112,113,286,287,286,287,288,289,290,240,
111,112,113,113,112,113,112,113,112,113,111,112,113,111,112,113,111,112,113,111,112,113,251,251,286,287,288,289,290,251,
261,261,261,261,262,261,262,261,261,262,261,262,263,264,265,266,267,263,264,265,262,263,264,265,266,263,264,265,266,267,
285,285,285,285,286,285,286,285,285,286,285,286,287,288,289,290,291,287,288,289,286,287,288,289,290,287,288,289,290,291,
261,262,262,252,252,233,263,264,265,266,267,263,262,263,264,265,266,263,264,265,266,262,262,263,264,265,266,265,266,267,
285,286,286,252,252,252,287,288,289,290,291,287,286,287,288,289,290,287,288,262,262,286,262,263,264,265,266,289,290,291,
261,262,261,252,252,252,263,264,265,266,267,263,286,287,288,289,290,264,265,286,286,287,286,287,288,289,290,265,266,267,
285,286,285,252,252,252,287,288,289,290,291,287,288,289,290,291,287,262,263,264,265,266,262,263,264,265,266,289,290,291,
252,252,252,252,252,252,262,263,264,265,266,266,252,240,240,240,240,240,240,240,289,290,286,287,288,289,290,266,266,266,
252,252,252,252,252,252,262,263,264,265,266,290,252,262,262,263,264,265,266,240,287,288,289,290,290,290,290,290,290,290,
252,252,252,252,252,252,262,263,264,265,266,262,263,240,240,240,262,262,240,240,262,262,262,262,262,262,263,264,265,266,
252,252,252,252,252,252,286,287,288,289,290,286,287,240,240,240,240,240,240,240,286,286,286,286,286,286,287,288,289,290
</data>
 </layer>
 <layer id="2" name="suelo" width="30" height="30">
  <data encoding="csv">
0,0,0,0,0,0,0,0,0,0,0,0,0,0,0,0,0,0,0,0,0,0,0,0,0,0,0,0,0,0,
0,0,0,0,0,0,0,0,0,0,0,0,0,0,0,0,0,0,0,0,0,0,0,0,0,0,0,0,0,0,
0,0,0,0,0,0,0,0,0,0,0,0,0,0,0,0,0,0,0,0,0,0,0,0,0,0,0,0,0,0,
324,325,326,327,324,0,0,0,0,0,326,327,0,0,0,0,0,0,0,0,0,0,0,0,0,0,0,0,0,0,
348,349,350,351,348,349,350,351,348,349,350,351,0,0,0,0,0,0,0,0,0,0,0,0,0,0,0,0,0,0,
372,373,374,375,372,373,374,375,372,373,374,375,0,0,0,0,0,0,0,324,325,0,0,0,0,334,332,333,334,335,
0,0,0,0,0,0,0,0,0,0,0,0,0,0,0,0,0,0,0,348,349,350,351,356,357,358,356,357,358,359,
0,0,0,0,0,0,0,0,0,0,0,0,0,0,0,0,0,0,0,372,373,374,375,380,381,382,380,381,382,383,
0,0,0,0,0,0,0,0,0,0,0,0,0,0,0,0,0,0,0,0,0,0,0,0,0,0,0,0,0,0,
161,162,163,164,165,166,167,168,0,0,0,0,0,0,0,0,0,0,0,0,0,0,0,0,0,0,0,0,0,0,
0,186,187,188,189,190,191,0,0,0,0,0,0,0,0,0,0,0,0,0,0,0,0,0,0,0,0,0,0,0,
0,210,211,212,213,214,215,0,0,0,0,0,0,0,0,0,0,0,0,0,0,0,0,0,0,0,0,0,0,0,
0,0,235,236,237,238,0,0,0,0,0,0,155,156,157,158,0,0,0,0,0,0,0,0,0,0,0,0,0,0,
0,0,0,0,0,0,0,0,0,0,0,0,179,180,181,182,0,0,0,0,0,0,0,0,0,0,0,0,0,0,
0,0,0,0,0,0,0,0,0,0,0,0,0,204,205,206,0,0,0,0,0,0,0,0,0,0,0,0,0,0,
0,0,0,0,0,0,0,0,0,0,0,0,0,0,0,0,0,0,0,0,0,0,0,0,0,0,0,0,0,0,
335,336,337,338,335,336,337,338,335,336,337,338,339,0,0,0,0,0,0,0,0,0,0,0,0,0,0,0,0,0,
359,360,361,362,359,360,361,362,359,360,361,362,363,0,0,0,0,0,0,0,0,0,0,0,0,0,0,0,0,0,
383,384,385,386,383,384,385,386,383,384,385,386,387,0,0,0,0,0,0,0,0,0,0,0,0,0,0,0,0,0,
0,0,0,0,0,0,0,0,0,0,0,0,0,0,0,0,0,0,0,0,0,0,0,0,0,0,0,0,0,0,
0,0,0,0,0,0,0,0,0,0,0,0,0,0,0,0,0,0,0,0,0,332,333,334,0,0,0,335,335,335,
0,0,0,0,0,0,0,0,0,0,0,0,0,0,0,0,0,0,0,0,0,356,357,358,356,357,358,359,359,359,
0,0,0,231,232,0,0,0,0,231,232,0,0,0,0,0,0,0,0,0,0,0,0,0,0,0,0,0,0,0,
0,0,0,255,256,0,0,0,0,255,256,0,0,0,0,0,0,0,0,0,0,0,0,0,0,0,0,0,0,0,
0,0,0,279,280,281,0,0,0,279,280,281,0,0,0,0,0,0,0,0,0,0,0,0,0,0,0,0,0,0,
0,0,0,303,304,305,0,0,0,303,304,305,0,0,0,0,0,0,0,0,0,0,0,0,0,0,0,0,0,0,
324,325,326,327,328,329,324,325,326,327,328,329,335,0,0,0,0,0,0,0,0,0,0,0,0,0,0,0,0,0,
348,349,350,351,352,353,348,349,350,351,352,353,359,0,0,0,0,0,0,0,155,156,157,158,0,0,0,0,0,0,
372,373,374,375,376,377,372,373,374,375,376,377,383,0,0,0,0,0,0,0,0,180,181,182,0,0,0,0,0,0,
396,397,398,399,400,401,396,397,398,399,400,401,407,0,0,0,0,0,0,0,0,204,205,206,0,324,325,326,327,328
</data>
 </layer>
 <layer id="4" name="lava" width="30" height="30">
  <data encoding="csv">
0,0,0,0,0,0,0,0,0,0,0,0,0,0,0,0,0,0,0,0,0,0,0,0,0,0,0,0,0,0,
0,0,0,0,0,0,0,0,0,0,0,0,0,0,0,0,0,0,0,0,0,0,0,0,0,0,0,0,0,0,
0,0,0,0,0,0,0,0,0,0,0,0,0,0,0,0,0,0,0,0,0,0,0,0,0,0,0,0,0,0,
0,0,0,0,0,0,0,0,0,0,0,0,0,0,0,0,0,0,0,0,0,0,0,0,0,0,0,0,0,0,
0,0,0,0,0,0,0,0,0,0,0,0,0,0,0,0,0,0,0,0,0,0,0,0,0,0,0,0,0,0,
0,0,0,0,0,0,0,0,0,0,0,0,0,0,0,0,0,0,0,0,0,0,0,0,0,0,0,0,0,0,
0,0,0,0,0,0,0,0,0,0,0,0,0,0,0,0,0,0,0,0,0,0,0,0,0,0,0,0,0,0,
0,0,0,0,0,0,0,0,0,0,0,0,0,0,0,0,0,0,0,0,0,0,0,0,0,0,0,0,0,0,
0,0,0,0,0,0,0,0,0,0,0,0,0,0,0,0,0,0,0,0,0,0,0,0,0,0,0,0,0,0,
0,0,0,0,0,0,0,0,0,0,0,0,0,0,0,0,0,0,0,0,0,0,0,0,0,0,0,0,0,0,
0,0,0,0,0,0,0,0,0,0,0,0,0,0,0,0,0,0,0,0,0,0,0,0,0,0,0,0,0,0,
0,0,0,0,0,0,0,0,0,0,0,0,0,0,0,0,0,0,0,0,0,0,0,0,0,0,0,0,0,0,
0,0,0,0,0,0,0,0,0,0,0,0,0,0,0,0,0,0,0,0,0,0,0,0,0,0,0,0,0,0,
0,0,0,0,0,0,0,0,0,0,0,0,0,0,0,0,0,0,0,0,0,0,0,0,0,0,0,0,0,0,
0,0,0,0,0,0,0,0,0,0,0,0,0,0,0,0,0,0,0,0,0,0,0,0,0,0,0,0,0,0,
0,0,0,0,0,0,0,0,0,0,0,0,0,0,0,0,0,0,0,0,0,0,0,0,0,0,0,0,0,0,
0,0,0,0,0,0,0,0,0,0,0,0,0,0,0,0,0,0,0,0,0,0,0,0,0,0,0,0,0,0,
0,0,0,0,0,0,0,0,0,0,0,0,0,0,0,0,0,0,0,0,0,0,0,0,0,0,0,0,0,0,
0,0,0,0,0,0,0,0,0,0,0,0,0,0,0,0,0,0,0,0,0,0,0,0,0,0,0,0,0,0,
0,0,0,0,0,0,0,0,0,0,0,0,0,0,0,0,0,0,0,0,0,0,0,0,0,0,0,0,0,0,
0,0,0,0,0,0,0,0,0,0,0,0,0,0,0,0,0,0,0,0,0,0,0,0,467,467,467,0,0,0,
0,0,0,0,0,0,0,0,0,0,0,0,0,0,0,0,0,0,0,0,0,0,0,0,0,0,0,0,0,0,
0,0,0,0,0,0,0,0,0,0,0,0,0,0,0,0,0,0,0,0,0,0,0,0,0,0,0,0,0,0,
0,0,0,0,0,0,0,0,0,0,0,0,0,0,0,0,0,0,0,0,0,0,0,0,0,0,0,0,0,0,
0,0,0,0,0,0,0,0,0,0,0,0,0,0,0,0,0,0,0,0,0,0,0,0,0,0,0,0,0,0,
0,0,0,0,0,0,0,0,0,0,0,0,0,0,0,0,0,0,0,0,0,0,0,0,0,0,0,0,0,0,
0,0,0,0,0,0,0,0,0,0,0,0,0,0,0,0,0,0,0,0,0,0,0,0,0,0,0,0,0,0,
0,0,0,0,0,0,0,0,0,0,0,0,0,0,0,0,0,0,0,0,0,0,0,0,0,0,0,0,0,0,
0,0,0,0,0,0,0,0,0,0,0,0,0,0,0,0,0,0,0,0,0,0,0,0,0,0,0,0,0,0,
0,0,0,0,0,0,0,0,0,0,0,0,0,0,0,0,0,0,0,0,0,0,0,0,0,0,0,0,0,0
</data>
 </layer>
 <objectgroup id="5" name="monedas"/>
 <layer id="3" name="veneno" width="30" height="30">
  <data encoding="csv">
0,0,0,0,0,0,0,0,0,0,0,0,0,0,0,0,0,0,0,0,0,0,0,0,0,0,0,0,0,0,
0,0,0,0,0,0,0,0,0,0,0,0,0,0,0,0,0,0,0,0,0,0,0,0,0,0,0,0,0,0,
0,0,0,0,0,0,0,0,0,0,0,0,0,0,0,0,0,0,0,0,0,0,0,0,0,0,0,0,0,0,
0,0,0,0,0,466,466,466,466,466,0,0,0,0,0,0,0,0,0,0,0,0,0,0,0,0,0,0,0,0,
0,0,0,0,0,0,0,0,0,0,0,0,0,0,0,0,0,0,0,0,0,0,0,0,0,0,0,0,0,0,
0,0,0,0,0,0,0,0,0,0,0,0,0,0,0,0,0,0,0,0,0,466,466,466,466,0,0,0,0,0,
0,0,0,0,0,0,0,0,0,0,0,0,0,0,0,0,0,0,0,0,0,0,0,0,0,0,0,0,0,0,
0,0,0,0,0,0,0,0,0,0,0,0,0,0,0,0,0,0,0,0,0,0,0,0,0,0,0,0,0,0,
0,0,0,0,0,0,0,0,0,0,0,0,0,0,0,0,0,0,0,0,0,0,0,0,0,0,0,0,0,0,
0,0,0,0,0,0,0,0,0,0,0,0,0,0,0,0,0,0,0,0,0,0,0,0,0,0,0,0,0,0,
0,0,0,0,0,0,0,0,0,0,0,0,0,0,0,0,0,0,0,0,0,0,0,0,0,0,0,0,0,0,
0,0,0,0,0,0,0,0,0,0,0,0,0,0,0,0,0,0,0,0,0,0,0,0,0,0,0,0,0,0,
0,0,0,0,0,0,0,0,0,0,0,0,0,0,0,0,0,0,0,0,0,0,0,146,147,148,149,150,151,152,
0,0,0,0,0,0,0,0,0,0,0,0,0,0,0,0,0,0,0,0,0,0,0,170,171,172,173,174,175,176,
0,0,0,0,0,0,0,0,0,0,0,0,0,0,0,0,0,0,0,0,0,0,0,194,195,196,197,198,199,200,
0,0,0,0,0,0,0,0,0,0,0,0,0,0,0,0,0,0,0,0,0,0,0,218,219,220,221,222,223,224,
0,0,0,0,0,0,466,466,466,466,466,466,0,0,0,0,0,0,0,0,0,0,0,242,243,244,245,246,247,248,
0,0,0,0,0,0,0,0,0,0,0,0,0,0,0,0,0,0,0,0,0,0,0,0,0,0,0,0,0,0,
0,0,0,0,0,0,0,0,0,0,0,0,0,0,0,0,0,0,0,0,0,0,0,0,0,0,0,0,0,0,
0,0,0,0,0,0,0,0,0,0,0,0,0,0,0,0,0,0,0,0,0,0,0,0,0,0,0,0,0,0,
0,0,0,0,0,0,0,0,0,0,0,0,0,0,0,0,0,0,0,0,0,0,0,0,0,0,0,0,0,0,
0,0,0,0,0,0,0,0,0,0,0,0,0,0,0,0,0,0,0,0,0,0,0,0,0,0,0,0,0,0,
0,0,0,0,0,0,0,0,0,0,0,0,0,0,0,0,0,0,0,0,0,0,0,0,0,0,0,0,0,0,
0,0,0,0,0,0,0,0,0,0,0,0,0,0,0,0,0,0,0,0,0,0,0,0,0,0,0,0,0,0,
0,0,0,0,0,0,0,0,0,0,0,0,0,0,0,0,0,0,0,0,0,0,0,0,0,0,0,0,0,0,
0,0,0,0,0,0,0,0,0,0,0,0,0,0,0,0,0,0,0,0,0,0,0,0,0,0,0,0,0,0,
0,0,0,0,0,0,0,0,0,0,0,0,0,0,0,0,0,0,0,0,0,0,0,0,0,0,0,0,0,0,
0,0,0,0,0,0,0,0,0,0,0,0,0,0,0,0,0,0,0,0,0,0,0,0,0,0,0,0,0,0,
0,0,0,0,0,0,0,0,0,0,0,0,0,0,0,0,0,0,0,0,0,0,0,0,0,0,0,0,0,0,
0,0,0,0,0,0,0,0,0,0,0,0,0,0,0,0,0,0,0,0,0,0,0,0,0,0,0,0,0,0
</data>
 </layer>
</map>
